auth0.svg

<?xml version="1.0" encoding="UTF-8"?>
<svg viewBox="0 0 24 24" version="1.1" xmlns="http://www.w3.org/2000/svg" xmlns:xlink="http://www.w3.org/1999/xlink">
    <title>Auth0</title>
        <path d="M1.28188795,10.4182783 C5.26401954,9.77027724 8.38547849,6.51827211 9.03972655,2.5837659 L9.25907642,0.69263792 C9.3134387,0.391887446 9.10701412,-0.026613214 8.72229649,0.00338683337 C5.71374381,0.235512199 2.87398028,1.21613875 1.29481325,1.85363975 C0.510747892,2.17076603 -0.00096402126,2.92422014 1.36358444e-06,3.76014276 L1.36358444e-06,9.92927749 C1.36358444e-06,10.2941531 0.332258865,10.5731535 0.697208395,10.5154034 L1.28188795,10.4209033 L1.28188795,10.4186533 L1.28188795,10.4182783 Z M10.9602734,2.5837659 C11.6164223,6.51827211 14.7382614,9.77027724 18.718112,10.4186533 L19.3024114,10.5131534 C19.667361,10.5731535 19.9999986,10.2941531 19.9999986,9.92702748 L19.9999986,3.75826776 C20.000964,2.92234514 19.4892521,2.16889103 18.7051868,1.85176475 C17.1237388,1.21201374 14.2862562,0.233262196 11.2777035,0.00151183041 C10.8907049,-0.0284882169 10.693024,0.39451245 10.7386426,0.690387917 L10.9579925,2.5815159 L10.9602734,2.5837659 Z M18.7150708,12.146281 C13.2731411,13.2071577 10.7470061,16.7812883 10.7470061,23.546299 C10.7470061,23.8856745 11.0880058,24.1219249 11.3746432,23.9329246 C13.8775888,22.2652969 19.3845251,17.9119151 19.9517175,12.4665315 C19.9733864,11.7817804 19.1066312,12.1035309 18.715451,12.146656 L18.7150708,12.146281 Z M1.28378873,12.146281 C6.72571844,13.2067827 9.25223362,16.7809133 9.25223362,23.546299 C9.25223362,23.8856745 8.9112339,24.1219249 8.62459646,23.9329246 C6.12165094,22.2652969 0.614714595,17.9119151 0.047522201,12.4665315 C0.0258533227,11.7817804 0.892608456,12.1035309 1.28378873,12.146656 L1.28378873,12.146281 Z" fill="#000000" fill-rule="nonzero"></path>
</svg>

<svg viewBox="0 0 24 24" xmlns="http://www.w3.org/2000/svg"><path d="M1.282 10.418c3.982-.648 7.103-3.9 7.758-7.834L9.26.693c.053-.301-.153-.72-.538-.69-3.008.233-5.848 1.213-7.427 1.85A2.058 2.058 0 0 0 0 3.76v6.17a.6.6 0 0 0 .697.585l.585-.094v-.002Zm9.678-7.834c.656 3.934 3.778 7.186 7.758 7.835l.584.094A.598.598 0 0 0 20 9.927V3.758a2.058 2.058 0 0 0-1.295-1.906c-1.581-.64-4.419-1.619-7.427-1.85-.387-.03-.585.393-.54.688l.22 1.892.002.002Zm7.755 9.562c-5.442 1.061-7.968 4.635-7.968 11.4 0 .34.341.576.628.387 2.503-1.668 8.01-6.021 8.577-11.466.021-.685-.845-.363-1.237-.32Zm-17.431 0c5.442 1.06 7.968 4.635 7.968 11.4 0 .34-.34.576-.627.387C6.122 22.265.615 17.912.048 12.467c-.022-.685.845-.363 1.236-.32Z"/></svg>
